X: 14159
T: From Galway To Dublin
R: hornpipe
M: 4/4
K: Gmajor
B,D|E4 EDB,D|GFGB A2 GA|Bdge dBAF|GE (3EEE D2 B,D|
E4 EDB,D|GFGB A2 GA|Bdge dBAF|GEFD E2 B,D|
E4 EDB,D|GFGB A2 GA|Bdge dBAF|GE (3EEE D2 B,D|
E4 EDB,D|GFGB A2 GA|Bdge dBAF|GEFD E2 Bd|
(3efg ed BcBA|GFGB d2 gf|eged BcBA|GE (3EEE DEB,D|
E2 B,D EDB,E|DEGB A2 GA|Bdge dBAF|GE (3FED E2 (3Bcd|
eged BcBA|GFGB d2 gf|eged BcBA|GE (3EEE DEB,D|
E4 EDB,D|GFGB A2 GA|Bdge dBAF|(3GFE FD E2|

